X:51
T:Reel Africain
C:Jean Paul Loyer
M:4/4
L:1/8
K:D
|: D3F A2FA | BABc ded2 | D3F A2FA | BAGF EGFE |
D3F A2FA | BABc ded2 | D3F A2GF | EGFE D4 ::
d2fd Adfd | Adfd edcA | B2BA BAGB | Afed cABc |
d2fd Adfd | Adfd edcA | B2BA BdcB | Afec d4 :|

